UI/Devices-Sensors/SVG/device-group-smart-filter_outline_24px.svg

<svg width="24" height="24" viewBox="0 0 24 24" fill="none" xmlns="http://www.w3.org/2000/svg">
<path d="M11 12V14H4V17C3.46957 17 2.96086 16.7893 2.58579 16.4142C2.21071 16.0391 2 15.5304 2 15V12H11ZM18 12L17.2 12.6L15.33 14H20V17C20.5304 17 21.0391 16.7893 21.4142 16.4142C21.7893 16.0391 22 15.5304 22 15V12H18ZM16 18H8V20H16V18ZM18 16V20C18 20.5304 17.7893 21.0391 17.4142 21.4142C17.0391 21.7893 16.5304 22 16 22H8C7.46957 22 6.96086 21.7893 6.58579 21.4142C6.21071 21.0391 6 20.5304 6 20V16H18ZM7.29 8.28997L8.72 9.71997C9.08758 9.19011 9.57782 8.75697 10.1489 8.45748C10.7201 8.15799 11.3551 8.00103 12 7.99997V5.99997C11.0929 6.0008 10.1978 6.2073 9.38196 6.60395C8.56615 7.00059 7.8509 7.57705 7.29 8.28997ZM12 1.99997C10.5679 2.00087 9.15268 2.30936 7.85012 2.90457C6.54755 3.49978 5.38803 4.36782 4.45 5.44997L5.87 6.86997C6.6199 5.97262 7.55742 5.25059 8.61652 4.75473C9.67563 4.25887 10.8306 4.00123 12 3.99997H12.55L13.1 2.34997L13.2 2.04997C12.8015 2.00785 12.4007 1.99115 12 1.99997ZM16 7.99997V11L20 7.99997V5.99997H17L18 2.99997H15L14 5.99997V7.99997H16Z" fill="#0F1621"/>
</svg>

<svg xmlns="http://www.w3.org/2000/svg" width="24" height="24" viewBox="0 0 24 24"><rect width="24" height="24" style="fill:none"/><path d="M11,12v2H4v3a2,2,0,0,1-2-2V12Zm7,0-.8.6L15.33,14H20v3a2,2,0,0,0,2-2V12Zm-2,6H8v2h8V18m2-2v4a2,2,0,0,1-2,2H8a2,2,0,0,1-2-2V16ZM7.29,8.29,8.72,9.72A4,4,0,0,1,12,8V6A6,6,0,0,0,7.29,8.29ZM12,2A10,10,0,0,0,4.45,5.45L5.87,6.87A8,8,0,0,1,12,4l.55,0,.55-1.65.1-.3A9.44,9.44,0,0,0,12,2Zm4,6v3l4-3V6H17l1-3H15L14,6V8Z"/></svg>
